svg/calendar_badge.svg

<svg xmlns="http://www.w3.org/2000/svg" viewBox="0 0 24 24"><path d="M19.5 16c-1.9 0-3.5 1.6-3.5 3.5s1.6 3.5 3.5 3.5 3.5-1.6 3.5-3.5-1.6-3.5-3.5-3.5m-5.29 5H5a2 2 0 0 1-2-2V5c0-1.11.89-2 2-2h1V1h2v2h8V1h2v2h1a2 2 0 0 1 2 2v9.21c-.5-.13-1-.21-1.5-.21-.17 0-.33 0-.5.03V8H5v11h9.03c-.03.17-.03.33-.03.5 0 .5.08 1 .21 1.5"/></svg>

<svg xmlns="http://www.w3.org/2000/svg" id="mdi-calendar-badge" viewBox="0 0 24 24"><path d="M19.5 16C17.6 16 16 17.6 16 19.5S17.6 23 19.5 23 23 21.4 23 19.5 21.4 16 19.5 16M14.21 21H5C3.9 21 3 20.11 3 19V5C3 3.89 3.89 3 5 3H6V1H8V3H16V1H18V3H19C20.1 3 21 3.89 21 5V14.21C20.5 14.08 20 14 19.5 14C19.33 14 19.17 14 19 14.03V8H5V19H14.03C14 19.17 14 19.33 14 19.5C14 20 14.08 20.5 14.21 21Z" /></svg>
